X: 3895
T: Black Widow, The
R: reel
M: 4/4
K: Adorian
cB|:"Am"ABAG A2 E2|G (3EEE D E2 A,2|B,CGE F2 D2|C2 B,2 "G"A,2 cB|
"Am"ABAG A2 E2|G (3EEE D E2 A,2|CDEB, C2 B,C|1 "G"E2 A,2 A,2 cB:|2 "F"E2 ^G2 A2 B2||
|:"G"c d2 d3 Bc|"^"dedc (3BBB B2|"D"GF G2 A3 E|ABdc BA G2|"^""Dm"c d2 d3 Bc|
dedc (3BBB B2|"Am"AEGD F2 C2|1 C2 D2 EABc/c/:|2 "Am"CDEB, C2 B,C||"G"E2 A,2 A,4||

